X:18015
T:Rowan Davies, Miss
R:Waltz
C:Phil Cunningham
O:Scotland
M:3/4
L:1/8
Q:1/4=120
K:G
B2 A2|"G"G4 D2|"D7"D3 E F2|("Em"G6|G2) g2 f2|"C"e3 G G2|"G"d3 G B2|"Am"A6|
"D7"B4 A2|"G"G4 D2|"D7"D3 E F2|("Em"G6|G2) A2 B2|"C"E c3 A2|"D7"F4 G2|("G"G6|G2):|
|:"G"G2 F2|"Em"E3 E E2|"Am"e3 G G2|("G"d6|"Bm"d2) B2 A2|"Em"G3 A B2|"C"e2 G3 A|("B7"B6|"G7"B2) c2 d2|
"C"e4 EG|"D7"F3 GAF|"Em"(G6|G2) A2 B2|"C"E c3 A2|"D7"F4 G2|"G"(G6|G2):|

